X:1
T:Rock Island Line (is a mighty good road)
M:4/4
L:1/8
K:G
 z DD DG GG G-| G G2 G=B BG B-| BD DD GG G G-| G G2 G A2 F2| D2 DE GG G G-|\
 G G2 GB BG B-| B D2 D G3 G| GG ED G3/2 G/2 G3/2 G/2| G3/2 G/2 E3/2 E/2 GG GG|\
 GG ED E D2 E| G,4
M:4/4
| B2 G2 B2 G2| B2 G2 B4| DD DD DD DD| ED B,2 G,4|

